!!!COM: Schiørring, Niels
!!!CDT: 1743-1798
!!!OPR@@DA: Choral-Bog
!!!ONM: 2
!!!OTL@@DA: Af Adams Fald er plat forderv’t
**kern	**fb	**kern	**kern	**kern	**kern	**kern	**kern	**kern
*part6	*part6	*part6	*part5	*part5	*part4	*part3	*part2	*part1
*staff8	*	*staff7	*staff6	*staff5	*staff4	*staff3	*staff2	*staff1
*clefF4	*	*clefC1	*clefF4	*clefC1	*clefF4	*clefC4	*clefC3	*clefC1
*k[]	*	*k[]	*k[]	*k[]	*k[]	*k[]	*k[]	*k[]
*M4/4	*	*M4/4	*M4/4	*M4/4	*M4/4	*M4/4	*M4/4	*M4/4
*met(c)	*	*met(c)	*met(c)	*met(c)	*met(c)	*met(c)	*met(c)	*met(c)
*MM180	*	*MM180	*MM180	*MM180	*MM180	*MM180	*MM180	*MM180
*	*	*	*^	*^	*	*	*	*
2D	.	2a	2ryy	2D	2d	2f	2D	2d	2f	2a
=1	=1	=1	=1	=1	=1	=1	=1	=1	=1	=1
2F	6	2a	2A	2F	2a	2d	2F	2A	2d	2a
2D	.	2a	2ryy@	2D	2d	[2f	2D	2d	[2f	2a
=2	=2	=2	=2	=2	=2	=2	=2	=2	=2	=2
2BB	6 5	2g	2ryy@	2BB	2d	2f]	2BB	2d	2f]	2g
2C#X	6	2a	2A	2C#X	2a	2e	2C#X	2A	2e	2a
=3	=3	=3	=3	=3	=3	=3	=3	=3	=3	=3
2D	.	2f	2.A	2D	2f	2d	2D	2A	2d	2f
2AA	#	2e	.	2AA	2e	2c#X	2AA	(4A	2c#X	2e
.	.	.	4G	.	.	.	.	4G)	.	.
=4	=4	=4	=4	=4	=4	=4	=4	=4	=4	=4
2D	.	2d	2F	2D	2d	2A	2D	2F	2d	2d
2D	.	2a	2ryy@	2D	2d	2f	2D	2d	2f	2a
=5	=5	=5	=5	=5	=5	=5	=5	=5	=5	=5
2AA	n	2cc	1ryy	2AA	2e	2.a	2AA	2e	[2a	2cc
2BB	7	2dd	.	2BB	2d	.	2BB	2d	(4a]	2dd
=6	=6	=6	=6	=6	=6	=6	=6	=6	=6	=6
2C	6	2a	1ryy	2C	2c	2e	2C	2e	2a	2a
2GG#X	6	2b	.	2GG#X	2B	2e	2GG#X	2B	2e	2b
=7	=7	=7	=7	=7	=7	=7	=7	=7	=7	=7
2AA	.	1cc	2A	2AA	1cc	1e	(2AA	2A	1e	1cc
2C	.	.	2Gni	2C	.	.	2C)	2G	.	.
=	=	=	=	=	=	=	=	=	=	=
*	*	*	*	*	*	*^	*^	*	*	*
2FF	.	2a	2F	2FF	2a	2c	2f/	2F	2FF	2F	2f	2a
*	*	*	*	*	*	*v	*v	*	*	*	*	*
*	*	*	*	*	*	*	*v	*v	*	*	*
=8:|!	=8:|!	=8:|!	=8:|!	=8:|!	=8:|!	=8:|!	=8:|!	=8:|!	=8:|!	=8:|!
2F	.	2cc	2A	2F	2cc	2f	2F	2A	2f	2cc
=9	=9	=9	=9	=9	=9	=9	=9	=9	=9	=9
2E	6	2cc	2G	2E	2cc	2g	2E	2G	2g	2cc
2C	.	2cc	2G	2C	2cc	2e	2C	2G	2e	2cc
=10	=10	=10	=10	=10	=10	=10	=10	=10	=10	=10
2F	.	2a	2A	2F	2a	2c	2F	2A	2c	2a
2D	.	2f	2A	2D	2f	[2f	2D	2A	[2f	2f
=11	=11	=11	=11	=11	=11	=11	=11	=11	=11	=11
1C	6 4	2a	2c	2C	2a	2f]	2C	2c	2f]	2a
.	5 3	2g	2B-X	2C	2g	2e	2C	2B-X	2e	2g
=12	=12	=12	=12	=12	=12	=12	=12	=12	=12	=12
*	*	*	*	*	*	*	*^	*	*	*
2FF	.	2f	1ryy	2FF	2A	2c	2F	2FF	2A	2f	2f
*	*	*	*	*	*	*	*v	*v	*	*	*
2F	.	2a	.	2F	2c	2f	2F	2c	2f	2a
=13	=13	=13	=13	=13	=13	=13	=13	=13	=13	=13
2C#X	5	2a	1ryy	2C#X	2e	2g	2C#X	2e	2g	2a
[2D	.	2a	.	[2D	2d	2f	[2D	2d	2f	2a
=14	=14	=14	=14	=14	=14	=14	=14	=14	=14	=14
2D]	-r6 4 2	2g	2B-X	2D]	2g	2e	2D]	2B-X	2e	2g
2C#X	6	2a	2A	2C#X	2a	2e	2C#X	2A	2e	2a
=15	=15	=15	=15	=15	=15	=15	=15	=15	=15	=15
2D	.	2f	2.A	2D	2f	2d	(2D	(2.A	(2d	(2f
2AA	#	2e	.	2AA	2e	2c#X	2AA)	.	2c#X)	2e)
.	.	.	4G	.	.	.	.	4G)	.	.
=16	=16	=16	=16	=16	=16	=16	=16	=16	=16	=16
2D	.	2d	2F	2D	2d	2A	2D	2F	2d	2d
2D	.	2a	2F	2D	2a	2d	2D	2A	2f	2a
=17	=17	=17	=17	=17	=17	=17	=17	=17	=17	=17
4AA	6	2a	2F	4AA	2a	2c	(4AA	2c	2f	2a
4BB-X	.	.	.	4BB-X	.	.	4BB-X)	.	.	.
2C	.	2g	2E	2C	2g	2c	2C	2c	2e	2g
=18	=18	=18	=18	=18	=18	=18	=18	=18	=18	=18
2F	.	2a	2F	2F	2a	2c	2F	2c	2f	2a
2D	6	2bni	2F	2D	2bni	2f	2D	2d	2f	2b
=19	=19	=19	=19	=19	=19	=19	=19	=19	=19	=19
2C	.	2cc	2G	2C	2cc	2e	2C	2e	2g	2cc
2D	#	2a	4F#X	2D	2a	2d	2D	(4d	2f#X	2a
.	.	.	4c	.	.	.	.	4c)	.	.
=20	=20	=20	=20	=20	=20	=20	=20	=20	=20	=20
2GG	.	2g	1ryy	2GG	2B	2d	2GG	2B	2g	2g
2BB	6	2dd	.	2BB	2d	2g	2BB	2d	2g	2dd
=21	=21	=21	=21	=21	=21	=21	=21	=21	=21	=21
2C	.	2ee	2c	2C	2ee	2g	2C	2c	2g	2ee
2D	.	2dd	2A	2D	2dd	2f	2D	2A	2f	2dd
=22	=22	=22	=22	=22	=22	=22	=22	=22	=22	=22
2F	6	2a	2A	2F	2a	2d	2F	2A	2d	2a
2E	6 4	2cc	2A	2E	2cc	2e	2E	2A	2e	2cc
=23	=23	=23	=23	=23	=23	=23	=23	=23	=23	=23
2D	6 5	1b	2.A	2D	1b	2f	(2D	(2.A	(2f	1b
2E	4	.	.	2E	.	2e	2E)	.	2e)	.
=24	=24	=24	=24	=24	=24	=24	=24	=24	=24	=24
*	*	*	*	*	*	*^	*	*	*	*
2AA	#	2a	2A	2AA	2a	2c	2e/	2AA	2A	2c	2a
*	*	*	*v	*v	*	*	*	*	*	*	*
*	*	*	*	*v	*v	*v	*	*	*	*
==	==	==	==	==	==	==	==	==
*-	*-	*-	*-	*-	*-	*-	*-	*-
!!!system-decoration: {(s1,s2,s3,s4)}{(s5,s6)}{(s7,s8)}
!!!RDF**kern: i = editorial accidental
!!!AGN: chorale
!!!EED: Derek Remeš
!!!EED2: Victor Phan
!!!END: 2023/11/28
!!!ENC: Wolfgang Drescher
!!!EEV: 2023/11/29
!!!title: @{ONM}. @{OTL}